!!!!SEGMENT: pl-kk--kk-i-7--100_gorczycki-grzegorz-gerwazy--salve-virgo-puerpera.krn
!!!cenid: 16xx:939
!!!COM: Gorczycki, Grzegorz Gerwazy
!!!COM-rismid: pe30009207
!!!CDT: ~1666-1734/04/30
!!!CNT: Polish
!!!OTL: Salve virgo puerpera
!!!PDT:
!!!AGN: Sacred
!!!SMS-siglum: PL-Kk
!!!SMS-shelfmark: Kk.I.7
!!!SMS-shelfwork: 100 W
!!!SMS-variant:
!!!SMS-altvar:
!!!NIFC-rismid: 300258177
!!!URL-scan: http://repozytorium.nifc.pl/skany/pl-kk-nut--i-7
!!!ONB-nifc: UWAGA: C (skan 0077, s.147), A (0155, s.131), T (0242, s.147), B (0329, s.143). Następny utwór: Omni die dic Mariae
**kern	**text	**text	**text	**text	**kern	**text	**text	**text	**text	**kern	**text	**text	**text	**text	**kern	**text	**text	**text	**text
*part4	*part4	*part4	*part4	*part4	*part3	*part3	*part3	*part3	*part3	*part2	*part2	*part2	*part2	*part2	*part1	*part1	*part1	*part1	*part1
*staff4	*staff4	*staff4	*staff4	*staff4	*staff3	*staff3	*staff3	*staff3	*staff3	*staff2	*staff2	*staff2	*staff2	*staff2	*staff1	*staff1	*staff1	*staff1	*staff1
*I"BASSVS.	*	*	*	*	*I"TENOR.	*	*	*	*	*I"ALTVS.	*	*	*	*	*I"CANTVS.	*	*	*	*
*I'B	*	*	*	*	*I'T	*	*	*	*	*I'A	*	*	*	*	*I'S	*	*	*	*
*clefF4	*	*	*	*	*clefC4	*	*	*	*	*clefC3	*	*	*	*	*clefC4	*	*	*	*
*k[]	*	*	*	*	*k[]	*	*	*	*	*k[]	*	*	*	*	*k[]	*	*	*	*
*M2/1	*	*	*	*	*M2/1	*	*	*	*	*M2/1	*	*	*	*	*M2/1	*	*	*	*
*met(C|)	*	*	*	*	*met(C|)	*	*	*	*	*met(C|)	*	*	*	*	*met(C|)	*	*	*	*
=1-	=1-	=1-	=1-	=1-	=1-	=1-	=1-	=1-	=1-	=1-	=1-	=1-	=1-	=1-	=1-	=1-	=1-	=1-	=1-
!	!	!	!	!	!LO:TX:t=P:problem:kreska pseudotaktowa	!	!	!	!	!	!	!	!	!	!LO:TX:t=P:problem:kreska pseudotaktowa	!	!	!	!
0r	.	.	.	.	0r	.	.	.	.	1d	Sal-	So-	Ter-	Ci-	1re	.	.	.	.
*	*	*	*	*	*	*	*	*	*	*2\right	*	*	*	*	*	*	*	*	*
.	.	.	.	.	.	.	.	.	.	2.f\	-ve	-la-	-ra	.	1D	Sal-	So-	Ter-	Ci-
!	!	!	!	!	!	!	!	!	!	!LO:TX:t=P:problem:kreska pseudotaktowa	!	!	!	!	!	!	!	!	!
.	.	.	.	.	.	.	.	.	.	4g\	.	.	.	-vi-	.	.	.	.	.
=2-	=2-	=2-	=2-	=2-	=2-	=2-	=2-	=2-	=2-	=2-	=2-	=2-	=2-	=2-	=2-	=2-	=2-	=2-	=2-
!LO:TX:t=P:problem:kreska pseudotaktowa	!	!	!	!	!	!	!	!	!	!	!	!	!	!	!	!	!	!	!
1r	.	.	.	.	1D	Sal-	So-	Ter-	Ci-	4a\	Vir-	.	.	-tas	2.F/	-ve	-la-	.	.
.	.	.	.	.	.	.	.	.	.	4g\	.	.	.	.	.	.	.	.	.
.	.	.	.	.	.	.	.	.	.	4f\	.	.	.	.	.	.	.	.	.
!	!	!	!	!	!	!	!	!	!	!LO:TX:t=P:problem:kreska pseudotaktowa	!	!	!	!	!	!	!	!	!
.	.	.	.	.	.	.	.	.	.	4e\	.	.	.	.	4G/	.	.	.	.
!	!	!	!	!	!LO:TX:t=P:problem:kreska pseudotaktowa	!	!	!	!	!	!	!	!	!	!LO:TX:t=P:problem:kreska pseudotaktowa	!	!	!	!
1.D	Sal-	So-	Ter-	Ci-	1F	-ve	-la-	-ra	-vi-	1d	-go	-men	es	.	1A	Vir-	.	.	-vi-
=3-	=3-	=3-	=3-	=3-	=3-	=3-	=3-	=3-	=3-	=3-	=3-	=3-	=3-	=3-	=3-	=3-	=3-	=3-	=3-
.	.	.	.	.	1G	Vir-	-men	es	-tas	1e	Pu-	mae-	be-	al-	2G/	-go	-men	-ra	-tas
*2\right	*	*	*	*	*	*	*	*	*	*	*	*	*	*	*2\right	*	*	*	*
!LO:TX:t=P:problem:kreska pseudotaktowa	!	!	!	!	!	!	!	!	!	!	!	!	!	!	!	!	!	!	!
2C/	-ve	-la-	-ra	-vi-	.	.	.	.	.	.	.	.	.	.	2.c\	Vir-	mae-	es	al-
2.F\	Vir-	-men	es	-tas	1A	-go	mae-	be-	al-	2f\	-er-	-ren-	-ne-	-tiſ-	.	.	.	.	.
.	.	.	.	.	.	.	.	.	.	.	.	.	.	.	4B-X\	.	.	.	.
!	!	!	!	!	!	!	!	!	!	!LO:TX:t=P:problem:kreska pseudotaktowa	!	!	!	!	!	!	!	!	!
.	.	.	.	.	.	.	.	.	.	2c/	.	.	.	.	1A\	-go	.	be-	.
!LO:TX:t=P:problem:kreska pseudotaktowa	!	!	!	!	!	!	!	!	!	!	!	!	!	!	!	!	!	!	!
4E\	.	.	.	.	.	.	.	.	.	.	.	.	.	.	.	.	.	.	.
=4-	=4-	=4-	=4-	=4-	=4-	=4-	=4-	=4-	=4-	=4-	=4-	=4-	=4-	=4-	=4-	=4-	=4-	=4-	=4-
2D/	-go	mae-	be	al-	1F	Pu-	-ren-	-ne-	-tiſ-	4d\	.	.	-di-	.	.	.	.	.	.
.	.	.	.	.	.	.	.	.	.	4A/	.	.	.	.	.	.	.	.	.
!	!	!	!	!	!	!	!	!	!	!	!	!	!	!	!LO:TX:t=P:problem:kreska pseudotaktowa	!	!	!	!
2D/	Pu-	-ren-	ne-	-tiſ-	.	.	.	.	.	1d	.	.	.	.	2A\	Pu-	.	-ne-	.
2.AA/	-er-	-ti-	-di-	-si-	2.E/	-er-	.	-di-	.	.	.	.	.	.	2.A/	-er-	-ren-	.	-tiſ-
!	!	!	!	!	!	!	!	!	!	!LO:TX:t=P:problem:kreska pseudotaktowa	!	!	!	!	!	!	!	!	!
.	.	.	.	.	.	.	.	.	.	2c#X/	-pe-	-ti-	.	-si-	.	.	.	.	.
!LO:TX:t=P:problem:kreska pseudotaktowa	!	!	!	!	!	!	!	!	!	!	!	!	!	!	!	!	!	!	!
4AA/	-pe-	-um	-cta	-mi	4E/	-pe-	-ti-	.	-si-	.	.	.	.	.	4A/	-pe-	-ti-	-di-	-si-
=5-	=5-	=5-	=5-	=5-	=5-	=5-	=5-	=5-	=5-	=5-	=5-	=5-	=5-	=5-	=5-	=5-	=5-	=5-	=5-
!	!	!	!	!	!LO:TX:t=P:problem:kreska pseudotaktowa	!	!	!	!	!LO:TX:t=P:problem:kreska pseudotaktowa	!	!	!	!	!LO:TX:t=P:problem:kreska pseudotaktowa	!	!	!	!
2D,\	-ra	.	.	.	1D	-ra	-um	-cta	-mi	1d	-ra	-um	-cta	-mi	1A,	-ra	-um	-cta	-mi
*lig	*	*	*	*	*	*	*	*	*	*	*	*	*	*	*	*	*	*	*
1D	Tem-	Hor-	et	Por-	.	.	.	.	.	.	.	.	.	.	.	.	.	.	.
!	!	!	!	!	!LO:TX:t=P:problem:kreska pseudotaktowa	!	!	!	!	!	!	!	!	!	!	!	!	!	!
*	*	*	*	*	*	*	*	*	*	*	*	*	*	*	*lig	*	*	*	*
.	.	.	.	.	1re	.	.	.	.	0r	.	.	.	.	1A	Tem-	Hor-	et	Por-
1F\	.	.	.	.	.	.	.	.	.	.	.	.	.	.	.	.	.	.	.
*Xlig	*	*	*	*	*	*	*	*	*	*	*	*	*	*	*	*	*	*	*
=6-	=6-	=6-	=6-	=6-	=6-	=6-	=6-	=6-	=6-	=6-	=6-	=6-	=6-	=6-	=6-	=6-	=6-	=6-	=6-
*	*	*	*	*	*lig	*	*	*	*	*	*	*	*	*	*	*	*	*	*
.	.	.	.	.	1A	Tem-	Hor-	et	Por-	.	.	.	.	.	1c	.	.	.	.
!LO:TX:t=P:problem:kreska pseudotaktowa	!	!	!	!	!	!	!	!	!	!	!	!	!	!	!	!	!	!	!
2C/	-plum	-tus	Sa-	-ta	.	.	.	.	.	.	.	.	.	.	.	.	.	.	.
*	*	*	*	*	*	*	*	*	*	*	*	*	*	*	*Xlig	*	*	*	*
!	!	!	!	!	!	!	!	!	!	!	!	!	!	!	!LO:TX:t=P:problem:kreska pseudotaktowa	!	!	!	!
!	!	!	!	!	!	!	!	!	!	!LO:TX:t=P:problem:kreska pseudotaktowa	!	!	!	!	!	!	!	!	!
2.E\	Tri-	Vo-	-cer-	o-	1c	.	.	.	.	1r	.	.	.	.	1G	-plum	-tus	Sa-	-ta
4F\	-ni-	-lu-	-do-	-rien-	.	.	.	.	.	.	.	.	.	.	.	.	.	.	.
*	*	*	*	*	*Xlig	*	*	*	*	*	*	*	*	*	*	*	*	*	*
=7-	=7-	=7-	=7-	=7-	=7-	=7-	=7-	=7-	=7-	=7-	=7-	=7-	=7-	=7-	=7-	=7-	=7-	=7-	=7-
*	*	*	*	*	*	*	*	*	*	*lig	*	*	*	*	*	*	*	*	*
!LO:TX:t=P:problem:kreska pseudotaktowa	!	!	!	!	!LO:TX:t=P:problem:kreska pseudotaktowa	!	!	!	!	!	!	!	!	!	!	!	!	!	!
1G	ta-	pta-	-ta-	-ta-	1Bn	-plum	-tus	Sa-	-ta	1d	Tem-	Hor-	et	Por-	4Bn\	Tri-	Vo-	-cer-	O-
.	.	.	.	.	.	.	.	.	.	.	.	.	.	.	4c\	-ni-	-lu-	-do-	-rien-
.	.	.	.	.	.	.	.	.	.	.	.	.	.	.	1d	-ta-	-pta-	-ta-	-ta-
(>4D\	.	.	.	.	1d	Tri-	Vo-	-cer-	O-	1f	.	.	.	.	.	.	.	.	.
4E\	.	.	.	.	.	.	.	.	.	.	.	.	.	.	.	.	.	.	.
4F\)	.	.	.	.	.	.	.	.	.	.	.	.	.	.	4A\	.	.	.	.
!LO:TX:t=P:problem:kreska pseudotaktowa	!	!	!	!	!	!	!	!	!	!	!	!	!	!	!LO:TX:t=P:problem:kreska pseudotaktowa	!	!	!	!
4G\	.	.	.	.	.	.	.	.	.	.	.	.	.	.	4B\	.	.	.	.
*	*	*	*	*	*	*	*	*	*	*Xlig	*	*	*	*	*	*	*	*	*
=8-	=8-	=8-	=8-	=8-	=8-	=8-	=8-	=8-	=8-	=8-	=8-	=8-	=8-	=8-	=8-	=8-	=8-	=8-	=8-
4A\	.	.	.	.	1c	-ni-	-lu-	-do-	-rien-	2cny,/	-plum	-tus	Sa-	-ta	4c\	.	.	.	.
4AA/	.	.	.	.	.	.	.	.	.	.	.	.	.	.	4d\	.	.	.	.
1A	.	.	.	.	.	.	.	.	.	4c/	Tri-	Vo-	-cer-	O-	2e\	.	.	.	.
!	!	!	!	!	!	!	!	!	!	!LO:TX:t=P:problem:kreska pseudotaktowa	!	!	!	!	!	!	!	!	!
.	.	.	.	.	.	.	.	.	.	4c/	-ni-	-lu-	-do-	-rien-	.	.	.	.	.
.	.	.	.	.	1B	-ta-	-pta-	-ta-	-ta-	(>2d\	-ta-	-pta-	-ta-	-ta-	4A\	.	.	.	.
.	.	.	.	.	.	.	.	.	.	.	.	.	.	.	4d\	.	.	.	.
!LO:TX:t=P:problem:kreska pseudotaktowa	!	!	!	!	!	!	!	!	!	!	!	!	!	!	!LO:TX:t=P:problem:kreska pseudotaktowa	!	!	!	!
2G#X\	.	.	.	.	.	.	.	.	.	2e\)	.	.	.	.	2B\	.	.	.	.
=9-	=9-	=9-	=9-	=9-	=9-	=9-	=9-	=9-	=9-	=9-	=9-	=9-	=9-	=9-	=9-	=9-	=9-	=9-	=9-
!	!	!	!	!	!	!	!	!	!	!LO:TX:t=P:problem:kreska pseudotaktowa	!	!	!	!	!	!	!	!	!
!LO:TX:t=P:problem:kreska pseudotaktowa	!	!	!	!	!LO:TX:t=P:problem:kreska pseudotaktowa	!	!	!	!	!	!	!	!	!	!LO:TX:t=P:problem:kreska pseudotaktowa	!	!	!	!
!	!	!	!	!	!	!	!	!	!	!LO:SIC:v:t=custos f	!	!	!	!	!	!	!	!	!
1A	-tis	-tis	-lis	-lis	1A	-tis	tis	lis	lis	1e	-tis	-tis	-lis	-lis	1c	-tis	-tis	-lis	-lis
!	!	!	!	!	!	!	!	!	!	!LO:LB:g=original	!	!	!	!	!	!	!	!	!
!	!	!	!	!	!	!	!	!	!	!	!	!	!	!	!LO:TX:t=P:problem:kreska pseudotaktowa	!	!	!	!
!	!	!	!	!	!LO:TX:t=P:problem:kreska pseudotaktowa	!	!	!	!	!	!	!	!	!	!	!	!	!	!
!	!	!	!	!	!LO:SIC:v:t=custos c	!	!	!	!	!	!	!	!	!	!	!	!	!	!
0r	.	.	.	.	0r	.	.	.	.	2f\	an-	Pal-	San-	In	1re	.	.	.	.
.	.	.	.	.	.	.	.	.	.	2f\	-ge-	-ma	-cta	Te	.	.	.	.	.
!	!	!	!	!	!	!	!	!	!	!	!	!	!	!	!LO:LB:g=original	!	!	!	!
=10-	=10-	=10-	=10-	=10-	=10-	=10-	=10-	=10-	=10-	=10-	=10-	=10-	=10-	=10-	=10-	=10-	=10-	=10-	=10-
.	.	.	.	.	.	.	.	.	.	1e	-lo-	pa-	es	est	2c\	an-	Pal-	San-	In
!	!	!	!	!	!	!	!	!	!	!	!	!	!	!	!LO:TX:t=P:problem:kreska pseudotaktowa	!	!	!	!
.	.	.	.	.	.	.	.	.	.	.	.	.	.	.	2c\	-ge-	-ma	-cta	Te
!	!	!	!	!	!LO:LB:g=original	!	!	!	!	!	!	!	!	!	!	!	!	!	!
!LO:TX:t=P:problem:kreska pseudotaktowa	!	!	!	!	!	!	!	!	!	!	!	!	!	!	!	!	!	!	!
!LO:SIC:v:t=custos F	!	!	!	!	!	!	!	!	!	!	!	!	!	!	!	!	!	!	!
1r	.	.	.	.	1c	An-	Pal-	San-	In	2c/	-rum	-tien-	et	o-	1A	-lo-	pa-	es	est
.	.	.	.	.	.	.	.	.	.	4F/	gau-	.	.	-mnis	.	.	.	.	.
!	!	!	!	!	!	!	!	!	!	!LO:TX:t=P:problem:kreska pseudotaktowa	!	!	!	!	!	!	!	!	!
.	.	.	.	.	.	.	.	.	.	4G/	.	.	.	.	.	.	.	.	.
!LO:LB:g=original	!	!	!	!	!	!	!	!	!	!	!	!	!	!	!	!	!	!	!
=11-	=11-	=11-	=11-	=11-	=11-	=11-	=11-	=11-	=11-	=11-	=11-	=11-	=11-	=11-	=11-	=11-	=11-	=11-	=11-
!	!	!	!	!	!	!	!	!	!	!	!	!	!	!	!LO:TX:t=P:problem:kreska pseudotaktowa	!	!	!	!
2r	.	.	.	.	1c	-ge-	-ma	-cta	Te	4A/	.	.	.	Gra-	1F	-rum	-tien	et	o-
.	.	.	.	.	.	.	.	.	.	4B/	.	.	.	.	.	.	.	.	.
1F	an-	Pal-	San-	In	.	.	.	.	.	4c/	.	.	.	.	.	.	.	.	.
.	.	.	.	.	.	.	.	.	.	4A/	.	.	.	.	.	.	.	.	.
!	!	!	!	!	!	!	!	!	!	!	!	!	!	!	!LO:TX:t=P:problem:kreska pseudotaktowa	!	!	!	!
.	.	.	.	.	1B-X	-lo-	pa-	es	est	2d\	.	.	.	.	1G	Gau-	.	im-	-mnis
!LO:TX:t=P:problem:kreska pseudotaktowa	!	!	!	!	!	!	!	!	!	!LO:TX:t=P:problem:kreska pseudotaktowa	!	!	!	!	!	!	!	!	!
2E\	-ge-	-ma	-cta	Te	.	.	.	.	.	2e\	.	.	.	.	.	.	.	.	.
=12-	=12-	=12-	=12-	=12-	=12-	=12-	=12-	=12-	=12-	=12-	=12-	=12-	=12-	=12-	=12-	=12-	=12-	=12-	=12-
!	!	!	!	!	!LO:TX:t=P:problem:kreska pseudotaktowa	!	!	!	!	!	!	!	!	!	!	!	!	!	!
1F	-lo-	pa-	es	est	1A	-rum	-tien-	et	o-	2c\	.	.	.	.	4A/	.	.	-mu-	Gra-
.	.	.	.	.	.	.	.	.	.	.	.	.	.	.	4G/	.	.	.	.
!	!	!	!	!	!	!	!	!	!	!LO:TX:t=P:problem:kreska pseudotaktowa	!	!	!	!	!	!	!	!	!
.	.	.	.	.	.	.	.	.	.	2f\	.	.	im-	.	4A/	.	.	.	.
!	!	!	!	!	!	!	!	!	!	!	!	!	!	!	!LO:TX:t=P:problem:kreska pseudotaktowa	!	!	!	!
.	.	.	.	.	.	.	.	.	.	.	.	.	.	.	4B-X/	.	.	.	.
2C/	-rum	.	et	o-	1.G	Gau-	-tiae	im-	-mnis	2e\	.	.	-mu-	.	2c\	.	.	.	.
!LO:TX:t=P:problem:kreska pseudotaktowa	!	!	!	!	!	!	!	!	!	!	!	!	!	!	!LO:TX:t=P:problem:kreska pseudotaktowa	!	!	!	!
2BB-X/	.	-tien-	im-	-mnis	.	.	.	.	.	1f\	.	.	.	.	2d\	.	.	.	.
=13-	=13-	=13-	=13-	=13-	=13-	=13-	=13-	=13-	=13-	=13-	=13-	=13-	=13-	=13-	=13-	=13-	=13-	=13-	=13-
2.C/	-gau-	-tiae	-mu-	-Gra-	.	.	.	.	.	.	.	.	.	.	2.c\	.	.	.	.
!	!	!	!	!	!	!	!	!	!	!LO:TX:t=P:problem:kreska pseudotaktowa	!	!	!	!	!	!	!	!	!
.	.	.	.	.	2G/	-di-	.	(m)u-	Gra-	2e\	di-	tiae	.	-ti-	.	.	.	.	.
!LO:TX:t=P:problem:kreska pseudotaktowa	!	!	!	!	!	!	!	!	!	!	!	!	!	!	!LO:TX:t=P:problem:kreska pseudotaktowa	!	!	!	!
4C/	-di-	.	.	-ti-	.	.	.	.	.	.	.	.	.	.	4B-X\	.	.	.	.
!	!	!	!	!	!LO:TX:t=P:problem:kreska pseudotaktowa	!	!	!	!	!LO:TX:t=P:problem:kreska pseudotaktowa	!	!	!	!	!	!	!	!	!
2FF/	-um	.	-nis	-a	1A	-um	.	-nis	-tia	1f	-um	.	-nis	-a	4A/	.	.	.	.
.	.	.	.	.	.	.	.	.	.	.	.	.	.	.	4G/	.	.	.	.
1D\	Cel-	Ce-	Cul-	Vir-	.	.	.	.	.	.	.	.	.	.	4A/	.	.	.	.
!	!	!	!	!	!	!	!	!	!	!	!	!	!	!	!LO:TX:t=P:problem:kreska pseudotaktowa	!	!	!	!
.	.	.	.	.	.	.	.	.	.	.	.	.	.	.	4F/	.	.	.	.
=14-	=14-	=14-	=14-	=14-	=14-	=14-	=14-	=14-	=14-	=14-	=14-	=14-	=14-	=14-	=14-	=14-	=14-	=14-	=14-
.	.	.	.	.	1G	Cel-	Ce-	Cul-	Vir-	1rg	.	.	.	.	2.E/	.	.	.	.
!LO:TX:t=P:problem:kreska pseudotaktowa	!	!	!	!	!	!	!	!	!	!	!	!	!	!	!	!	!	!	!
2C/	-la	-drus	-pae	-go	.	.	.	.	.	.	.	.	.	.	.	.	.	.	.
.	.	.	.	.	.	.	.	.	.	.	.	.	.	.	4E/	-di-	-tiae	.	-ti-
!	!	!	!	!	!	!	!	!	!	!	!	!	!	!	!LO:TX:t=P:problem:kreska pseudotaktowa	!	!	!	!
1F	pu-	Ca-	O-	Sin-	1A	-la	-drus	-pae	-go	2r	.	.	.	.	1F	-um	.	-nis	-a
.	.	.	.	.	.	.	.	.	.	1d\	Cel-	Ce-	Cul-	Vir-	.	.	.	.	.
=15-	=15-	=15-	=15-	=15-	=15-	=15-	=15-	=15-	=15-	=15-	=15-	=15-	=15-	=15-	=15-	=15-	=15-	=15-	=15-
!LO:TX:t=P:problem:kreska pseudotaktowa	!	!	!	!	!	!	!	!	!	!	!	!	!	!	!	!	!	!	!
1E	-ri-	-sti-	-ri-	-gu-	1G	pu-	Ca-	ori-	sin-	.	.	.	.	.	1G	Cel-	Ce-	Cul-	Vir-
!	!	!	!	!	!	!	!	!	!	!LO:TX:t=P:problem:kreska pseudotaktowa	!	!	!	!	!	!	!	!	!
.	.	.	.	.	.	.	.	.	.	2c#X/	-la	-drus	-pae	-go	.	.	.	.	.
(<4D/	-ta-	-ta-	-gi-	-la-	1F	-ri-	-sti-	-gi-	-gu-	2d\	pu-	Ca-	ori-	sin-	2A\	-la	-drus	-pae	-go
4C/	.	.	-na-	.	.	.	.	.	.	.	.	.	.	.	.	.	.	.	.
4BB-X/	.	.	.	.	.	.	.	.	.	2d\	-ri-	-sti-	-gi-	-gu-	1B-X\	pu-	Ca-	Ori-	sin-
!LO:TX:t=P:problem:kreska pseudotaktowa	!	!	!	!	!	!	!	!	!	!	!	!	!	!	!	!	!	!	!
4AA/)	.	.	.	.	.	.	.	.	.	.	.	.	.	.	.	.	.	.	.
=16-	=16-	=16-	=16-	=16-	=16-	=16-	=16-	=16-	=16-	=16-	=16-	=16-	=16-	=16-	=16-	=16-	=16-	=16-	=16-
*lig	*	*	*	*	*	*	*	*	*	*	*	*	*	*	*	*	*	*	*
1GG	.	.	.	.	0E	-ta-	-ta-	-na-	-la-	4g\	-ta-	-ta-	-na-	-la-	.	.	.	.	.
.	.	.	.	.	.	.	.	.	.	4f\	.	.	.	.	.	.	.	.	.
!	!	!	!	!	!	!	!	!	!	!LO:TX:t=P:problem:kreska pseudotaktowa	!	!	!	!	!LO:TX:t=P:problem:kreska pseudotaktowa	!	!	!	!
.	.	.	.	.	.	.	.	.	.	[<2e\	.	.	.	.	2B-X\	-ri-	-ſti-	-gi-	-gu-
!	!	!	!	!	!	!	!	!	!	!LO:N:xstem:cue	!	!	!	!	!	!	!	!	!
1AA	.	.	.	.	.	.	.	.	.	4e]	.	.	.	.	1A	-ta-	-ta-	-na-	-la-
.	.	.	.	.	.	.	.	.	.	4d\	.	.	.	.	.	.	.	.	.
!	!	!	!	!	!	!	!	!	!	!LO:TX:t=P:problem:kreska pseudotaktowa	!	!	!	!	!	!	!	!	!
.	.	.	.	.	.	.	.	.	.	2c#X/	.	.	.	.	.	.	.	.	.
*Xlig	*	*	*	*	*	*	*	*	*	*	*	*	*	*	*	*	*	*	*
=17-	=17-	=17-	=17-	=17-	=17-	=17-	=17-	=17-	=17-	=17-	=17-	=17-	=17-	=17-	=17-	=17-	=17-	=17-	=17-
0D;>	-tis	-tis	-lis	-ris.	0D;>	-tis	-tis.	-lis.	-ris.	0d;>	-tis.	-tis.	-lis.	-ris.	0A;>	-tis	-tis.	-lis	-ris.
==	==	==	==	==	==	==	==	==	==	==	==	==	==	==	==	==	==	==	==
*-	*-	*-	*-	*-	*-	*-	*-	*-	*-	*-	*-	*-	*-	*-	*-	*-	*-	*-	*-
!!!system-decoration: [(s1,s2,s3,s4)]
!!!RDF**kern: > = above
!!!RDF**kern: < = below
!!!EED: Antoni Szymański
!!!EST: 2021-03-20
!!!ENC: Katarzyna Serwa
!!!END: 2021-03-04
